!!! OTL: Berkowitz47
!!! Chapter: 1
!!! Section: I
!!! Page: 14
!!! Mode: 
!!! Encoder: DJB
**kern
*staff1
*I"Piano
=1-
*clefG2
*k[]
*C:
*M4/4
4c/
4d/
4e/
4f/
=2
2g/
2G/
=3
2d/
4e/
4f/
=4
4e/
4d/
2c/
=5
4c/
4d/
4e/
4f/
=6
2g/
2G/
=7
4d/
8e/L
8f/J
4e/
4d/
=8
1c
==
*-
